icons/evolvere-blue-folders-flat-vivid-dark-fallback/apps/64/gnome.svg

<?xml version="1.0" encoding="UTF-8" standalone="no"?>
<!-- Created with Inkscape (http://www.inkscape.org/) -->

<svg
   xmlns:dc="http://purl.org/dc/elements/1.1/"
   xmlns:cc="http://creativecommons.org/ns#"
   xmlns:rdf="http://www.w3.org/1999/02/22-rdf-syntax-ns#"
   xmlns:svg="http://www.w3.org/2000/svg"
   xmlns="http://www.w3.org/2000/svg"
   xmlns:xlink="http://www.w3.org/1999/xlink"
   xmlns:sodipodi="http://sodipodi.sourceforge.net/DTD/sodipodi-0.dtd"
   xmlns:inkscape="http://www.inkscape.org/namespaces/inkscape"
   width="64"
   height="64"
   id="svg13094"
   version="1.1"
   inkscape:version="0.91+devel r"
   sodipodi:docname="gnome.svg">
  <sodipodi:namedview
     id="base"
     pagecolor="#ffffff"
     bordercolor="#666666"
     borderopacity="1.0"
     inkscape:pageopacity="0"
     inkscape:pageshadow="2"
     inkscape:zoom="11.313709"
     inkscape:cx="44.452408"
     inkscape:cy="30.817918"
     inkscape:document-units="px"
     inkscape:current-layer="svg13094"
     showgrid="true"
     inkscape:snap-bbox="true"
     inkscape:bbox-paths="true"
     inkscape:bbox-nodes="true"
     inkscape:snap-bbox-edge-midpoints="true"
     inkscape:snap-bbox-midpoints="true"
     inkscape:object-paths="true"
     inkscape:snap-intersection-paths="true"
     inkscape:object-nodes="true"
     inkscape:snap-smooth-nodes="true"
     inkscape:snap-midpoints="true"
     inkscape:snap-object-midpoints="true"
     inkscape:snap-center="true"
     showguides="true"
     inkscape:guide-bbox="true"
     inkscape:window-width="1920"
     inkscape:window-height="1023"
     inkscape:window-x="-10"
     inkscape:window-y="35"
     inkscape:window-maximized="1"
     inkscape:snap-global="true"
     fit-margin-top="0"
     fit-margin-left="0"
     fit-margin-right="0"
     fit-margin-bottom="0"
     showborder="true"
     inkscape:showpageshadow="false"
     inkscape:snap-page="true">
    <inkscape:grid
       type="xygrid"
       id="grid3075"
       empspacing="5"
       visible="true"
       enabled="true"
       snapvisiblegridlinesonly="true"
       originx="1.6362304e-08px"
       originy="18px" />
  </sodipodi:namedview>
  <defs
     id="defs13096">
    <linearGradient
       id="linearGradient5602">
      <stop
         id="stop5604"
         style="stop-color:#496fa4;stop-opacity:1;"
         offset="0" />
      <stop
         id="stop5606"
         style="stop-color:#374860;stop-opacity:1;"
         offset="1" />
    </linearGradient>
    <radialGradient
       inkscape:collect="always"
       xlink:href="#linearGradient5602"
       id="radialGradient3876"
       gradientUnits="userSpaceOnUse"
       gradientTransform="matrix(0,1.40625,-1.125,0,52.25,-26)"
       cx="32"
       cy="18"
       fx="32"
       fy="18"
       r="32" />
  </defs>
  <metadata
     id="metadata13099">
    <rdf:RDF>
      <cc:Work
         rdf:about="">
        <dc:format>image/svg+xml</dc:format>
        <dc:type
           rdf:resource="http://purl.org/dc/dcmitype/StillImage" />
        <dc:title></dc:title>
      </cc:Work>
    </rdf:RDF>
  </metadata>
  <path
     id="path3874"
     d="m 1.6362307e-8,4 0,30 0,28 L 2,64 32,64 62,64 64,62 64,34 64,4 32,4 1.6362307e-8,4 Z"
     style="color:#000000;display:inline;overflow:visible;visibility:visible;fill:url(#radialGradient3876);fill-opacity:1;fill-rule:nonzero;stroke:none;stroke-width:2.28571415;marker:none;enable-background:accumulate"
     inkscape:connector-curvature="0" />
  <path
     style="color:#000000;display:inline;overflow:visible;visibility:visible;opacity:1;fill:#4f47ca;fill-opacity:1;fill-rule:nonzero;stroke:none;stroke-width:30.98386955;stroke-linecap:butt;stroke-linejoin:miter;stroke-miterlimit:4;stroke-dasharray:none;stroke-dashoffset:0;stroke-opacity:1;marker:none;enable-background:accumulate"
     d="M 0 4 L 0 34 L 0 62 L 1.0332031 63.033203 L 32 34 L 0 4 z "
     id="path4173" />
  <path
     style="color:#000000;display:inline;overflow:visible;visibility:visible;opacity:1;fill:#3051bf;fill-opacity:1;fill-rule:nonzero;stroke:none;stroke-width:30.98386955;stroke-linecap:butt;stroke-linejoin:miter;stroke-miterlimit:4;stroke-dasharray:none;stroke-dashoffset:0;stroke-opacity:1;marker:none;enable-background:accumulate"
     d="M 64 4 L 32 34 L 62.966797 63.033203 L 64 62 L 64 34 L 64 4 z "
     id="path4171" />
  <path
     style="color:#000000;display:inline;overflow:visible;visibility:visible;opacity:1;fill:#4159d3;fill-opacity:1;fill-rule:nonzero;stroke:none;stroke-width:1;stroke-linecap:butt;stroke-linejoin:miter;stroke-miterlimit:4;stroke-dasharray:none;stroke-dashoffset:0;stroke-opacity:1;marker:none;enable-background:accumulate"
     d="M 1.6362304e-8,4 32,34 64,4 Z"
     id="path4175"
     inkscape:connector-curvature="0" />
  <path
     style="color:#000000;display:inline;overflow:visible;visibility:visible;opacity:1;fill:#3647b1;fill-opacity:1;fill-rule:nonzero;stroke:none;stroke-width:1;stroke-linecap:butt;stroke-linejoin:miter;stroke-miterlimit:4;stroke-dasharray:none;stroke-dashoffset:0;stroke-opacity:1;marker:none;enable-background:accumulate"
     d="M 32 34 L 1.0332031 63.033203 L 2 64 L 62 64 L 62.966797 63.033203 L 32 34 z "
     id="path4177" />
  <path
     inkscape:connector-curvature="0"
     style="color:#000000;fill:#7389ff;fill-opacity:1;fill-rule:nonzero;stroke:none;stroke-width:2.28571415;marker:none;visibility:visible;display:inline;overflow:visible;enable-background:accumulate"
     d="M 2,0 0,1 0,4 32,4 64,4 64,1 62,0 32,0 2,0 z"
     id="path4090" />
  <path
     style="fill:#7c90f8;fill-opacity:1;fill-rule:nonzero"
     d="M 0,3 0,6 2,4 Z"
     id="path4298"
     inkscape:connector-curvature="0"
     sodipodi:nodetypes="cccc" />
  <path
     d="M 64,6 62,4 64,3 z"
     id="path3028"
     style="fill:#536adf;fill-opacity:1"
     inkscape:connector-curvature="0" />
  <g
     id="g3043"
     inkscape:export-filename="folder.png"
     inkscape:export-xdpi="90"
     inkscape:export-ydpi="90"
     transform="translate(-0.62500009,0.082283)" />
  <g
     id="scalable"
     transform="matrix(1.0385892,0,0,1.0385892,1214.7222,1878.8121)"
     inkscape:label="#g3701"
     style="fill:#ffffff" />
  <path
     style="fill:#ffffff;fill-opacity:0.90339893;fill-rule:nonzero;stroke:none;stroke-width:1.92216969"
     d="m 43.834969,15.555619 c -7.674263,0 -9.111277,10.928515 -4.794083,10.928515 4.316616,0 12.468538,-10.928515 4.794083,-10.928515 z m -12.228844,1.38131 c -4.318923,0.560562 -2.787146,8.066174 -0.487462,8.206511 2.298723,0.140511 4.807923,-8.767073 0.487462,-8.206511 z m -7.231586,2.9251 c -0.188373,0.02018 -0.392315,0.07304 -0.609136,0.162616 -3.471246,1.432439 -0.52283,7.344552 1.421829,6.947125 1.824716,-0.371979 2.028273,-7.411137 -0.812693,-7.109645 z m -5.403027,4.63143 c -0.301781,-0.01153 -0.627589,0.08496 -0.975117,0.324981 -2.778688,1.919997 0.965121,6.569534 2.600119,5.850219 1.430479,-0.629702 0.487654,-6.104119 -1.625002,-6.1752 z m 15.88481,3.575101 c -5.956996,-0.100722 -13.81348,2.854825 -15.153617,8.85655 -1.45143,6.494896 5.983138,15.519291 13.731788,15.519291 3.811855,0 8.196324,-3.439973 9.019013,-7.800299 0.628165,-3.32495 -7.397855,-1.996942 -7.109722,0.203173 0.345606,2.637121 -1.951386,3.934489 -4.184371,2.234426 -7.108183,-5.41183 11.80712,-8.085068 10.562899,-15.478637 -0.387317,-2.301433 -3.291523,-3.474052 -6.86599,-3.534504 z"
     id="path1369"
     inkscape:connector-curvature="0" />
</svg>

<svg xmlns="http://www.w3.org/2000/svg" viewBox="0 0 64 64"><defs><radialGradient id="0" gradientUnits="userSpaceOnUse" gradientTransform="matrix(0 1.40625-1.125 0 52.25-26)" cx="32" cy="18" r="32"><stop stop-color="#496fa4"/><stop offset="1" stop-color="#374860"/></radialGradient></defs><g color="#000"><path d="m0 4v30 28l2 2h30 30l2-2v-28-30h-32-32" fill="url(#0)"/><path d="m0 4v30 28l1.033 1.033 30.967-29.03-32-30" fill="#4f47ca"/><path d="m64 4l-32 30 30.967 29.03 1.033-1.033v-28-30" fill="#3051bf"/><path d="m0 4l32 30 32-30" fill="#4159d3"/><path d="m32 34l-30.967 29.03.967.967h60l.967-.967-30.967-29.03" fill="#3647b1"/><path d="m2 0l-2 1v3h32 32v-3l-2-1h-30-30" fill="#7389ff"/></g><path d="m0 3v3l2-2" fill="#7c90f8"/><path d="m64 6l-2-2 2-1z" fill="#536adf"/><path d="m43.835 15.556c-7.674 0-9.111 10.929-4.794 10.929 4.317 0 12.469-10.929 4.794-10.929m-12.229 1.381c-4.319.561-2.787 8.07-.487 8.207 2.299.141 4.808-8.767.487-8.207m-7.232 2.925c-.188.02-.392.073-.609.163-3.471 1.432-.523 7.345 1.422 6.947 1.825-.372 2.028-7.411-.813-7.11m-5.403 4.631c-.302-.012-.628.085-.975.325-2.779 1.92.965 6.57 2.6 5.85 1.43-.63.488-6.104-1.625-6.175m15.885 3.575c-5.957-.101-13.813 2.855-15.15 8.857-1.451 6.495 5.983 15.519 13.732 15.519 3.812 0 8.196-3.44 9.02-7.8.628-3.325-7.398-1.997-7.11.203.346 2.637-1.951 3.934-4.184 2.234-7.108-5.412 11.807-8.09 10.563-15.479-.387-2.301-3.292-3.474-6.866-3.535" fill="#fff" fill-opacity=".903"/></svg>
